X:310
T:Angoloise efter Sven Lorenz Bruun (nr 1)
M:2/4
L:1/8
R:Engelska
Z:Transkription gjord av Jonas Brunskog, 23/6 2008
O:Mönsterås, Döderhultsvik, Småland
S:efter Sven Lorenz Bruun
B:[[http://www.smus.se/earkiv/fmk/browselarge.php?lang=sw&katalogid=M+188&bildnr=00059|SMUS - katalog M188 bild 59]] (Datering: -1837. Angläs 1 av 2.)
K:Bb
|:bB/2B/2 Bb|b/2a/2g/2f/2 e/2d/2c/2B/2| fF/2F/2 Ff|e/2c/2A/2c/2 B2:|
|:dd fd|e/2d/2e/2g/2 gf|dd fd|c/2e/2A/2c/2 B2:|
(:musicend:)
(:music:)
